!!!id: EG018
!!!page: 184-185
!!!COM: Anonymous
!!!LYR: Anonymous
!!!PTL@@FR: Chansons Populaires du Canada
!!!OTL@@FR: C'est dans Paris ya-t-une brune
!!!PUB: G. E. Desbarats
!!!YEM:
!!!PDT: 1865
!!!SMA:
!!!OMD:
!!!AGN-Laforte: (verses, first part repeated)
!!!AGN-type:
!!!AGN-rime:
**kern	**text	**text	**text	**text	**text	**text
*clefG2	*	*	*	*	*	*
*k[f#]	*	*	*	*	*	*
*G:	*	*	*	*	*	*
*M3/8	*	*	*	*	*	*
*	*v:1	*v:2	*v:3	*v:4	*v:5	*v:6
*	*pline:1Ha	*pline:4Ha	*pline:7Ha	*pline:10Ha	*pline:13Ha	*pline:16Ha
=1	=1	=1	=1	=1	=1	=1
8g	C'est	Ell[e]	Quand	Le	Dans	Ell[e]
8a	dans	s'en	vous	len-	son	s'en
8f#	Pa-	va	se-	-de-	che-	re-
=2	=2	=2	=2	=2	=2	=2
4.g	-ris	chez	-rez	-main,	-min,	-tourn[e]
=3	=3	=3	=3	=3	=3	=3
8b/	ya-	l'a-	pour	de	a	à
8g	t-u-	-po-	vous	grand	ren-	l'[a]po-
8b/	-ne	-thi-	far-	ma-	-con-	-the-
=4	=4	=4	=4	=4	=4	=4
4.dd	brun[e]	-caire:	-der,	-tin,	-tré.	-caire:
!!LO:PB:g=original
*	*pline:1Hb	*pline:4Hb	*pline:7Hb	*pline:10Hb	*pline:13Hb	*pline:16Hb
=5	=5	=5	=5	=5	=5	=5
8dd	Qui	Com-	Pre-	La	Son	Mon-
8b	est	-bien	-nez	belle	jo-	-sieur,
8dd	plus	ven-	bien	a	-li	que
=6	=6	=6	=6	=6	=6	=6
4ee	bel-	-dez-	gard[e]	mis	ten-	a-
8dd	-le	vous	de	ses	-dre	-vez
=7	=7	=7	=7	=7	=7	=7
8ddq	.	.	.	.	.	.
4cc	que	vo-	vous	beaux	ca-	vous
8b	le	-tre	mi-	a-	-va-	ven-
=8	=8	=8	=8	=8	=8	=8
4.a	jour.	fard?	-rer....	-tours;	-lier.	-du?
*	*pline:2Ha	*pline:5Ha	*pline:8Ha	*pline:11Ha	*pline:14Ha	*pline:17Ha
=9:|!	=9:|!	=9:|!	=9:|!	=9:|!	=9:|!	=9:|!
8a	Mais	Nous	Vous	El-	Où	Je
8b	elle	le	é-	-le	al-	vous
8cc	a-	ven-	tein-	a	-lez-	ai
!!LO:PB:g=original
=10	=10	=10	=10	=10	=10	=10
4dd	-vait	-dons	-drez	mis	vous	ven-
8g	u-	par	vo-	son	blan-	-du
=11	=11	=11	=11	=11	=11	=11
4cc	-ne	de-	-tre	beau	-che	du
8b	ser-	-mi-	chan-	ju-	co-	ci-
=12	=12	=12	=12	=12	=12	=12
8a	-van-	on-	-del-	-pon	-quet-	-ra-
8a	-te	-ces;	-le....	vert,	-te,	-ge
*	*pline:2Hb	*pline:5Hb	*pline:8Hb	*pline:11Hb	*pline:14Hb	*pline:17Hb
8a	Qu'au-	C'est	Bar-	Son	Tout[e]	Pour
=13	=13	=13	=13	=13	=13	=13
4d	-rait,	deux,	-bouill....	blanc,	noir[e]	vos,
8g	Qu'au-	c'est	bar-	son	tout	pour
=14	=14	=14	=14	=14	=14	=14
8gL	-rait	deux	-bouill-	blanc	bar-	vos
8f#J	.	.	.	man-	.	.
8g	vou-	é-	-ez-	-te-	-bouil-	sou-
!!LO:PB:g=original
=15	=15	=15	=15	=15	=15	=15
4a	-lu	-cus.	vous;	-let,	-lée?	-liers:
8r	.	.	.	.	.	.
*	*pline:3Ha	*pline:6Ha	*pline:9Ha	*pline:12Ha	*pline:15Ha	*pline:18Ha
=16	=16	=16	=16	=16	=16	=16
8a	Etr[e]	Pe-	Le	Pour	Vous	C'ap-
8b	aus-	-sez	len-	al-	a-	-par-
8cc	-si	moi-	-de-	-lez	-vez	-ti-
=17	=17	=17	=17	=17	=17	=17
4dd	bell'	z-en	-main	faire	la	-ent
8g	que	un	vous	un	fi-	pas
=18	=18	=18	=18	=18	=18	=18
4cc	sa	de-	se-	tour	-gur[e]	une
8b	maî-	-mi-	-rez	en	plus	ser-
=19	=19	=19	=19	=19	=19	=19
4a	-tres-	on-	bel-	vil-	noi-	-van-
8a	-se:	-ce:	-le	-le,	-re	-te
!!LO:PB:g=original
*	*pline:3Hb	*pline:6Hb	*pline:9Hb	*pline:12Hb	*pline:15Hb	*pline:18Hb
=20	=20	=20	=20	=20	=20	=20
8d	Mais	Voi-	Com-	S'y	Que	De
8e	ell'	-là	-me	pro-	la	se
8f#	n'a	l'é-	le	-me-	ch[e]mi-	far-
=21	=21	=21	=21	=21	=21	=21
4g	pu.	-cu.	jour.	-ner.	-née!	-der.
8r	.	.	.	.	.	.
==	==	==	==	==	==	==
1r	.	.	.	.	.	.
==	==	==	==	==	==	==
*-	*-	*-	*-	*-	*-	*-
!!!EED-1: Samuel Boone
!!!EEV-1: 2026/02/08
!!!EEV-2: Isaac Howie
